X: 1
T: Transrand vals
C: trad. Sweden
O: efter Bertil Fernebord via David Kaynor
R: waltz
S: https://natunelist.net/transstrand-waltz-from/
Z: 2022 John Chambers <jc:trillian.mit.edu>
M: 3/4
L: 1/8
K: D
eg |\
"Dm"f4 e2 | d2 ^c2 d2 |"A7"^cd e2 d2 | ^cd ef ge ||\
"Dm"f4 e2 | d2 ^c2 d2 |"A"^ce a2 c2 | "Dm"d4 :|
|: A2 |\
"A"A2 fe fg | f2 e2 d2 |"G"d2 ga gf | "A7"e2 f2 g2 ||\
"Dm"ab ag f2 | "A"eg fe d^c | "Dm"df "A7"eA ^ce | "Dm"d4 :|
